X: 5
T: The Home Ruler
R: hornpipe
M: 4/4
L: 1/8
K: Dmaj
|: A,>B, |D2 F>A D>AF>A | d>ef>d B2 d>B | A2 A>B A>FD>E | F>DE>D B,2 (3G,A,B, |
D>A (3FGA D2 F>A | d2 (3fed B2 d>B | A>^GA>B (3ABA D>E | F2 D2 D2 :|
|: (3ABc |d2 d2 d2- d>f | a>db>d a>df>d | e>fe>d B>Ad>e | f>de>d B>dA>B |
d2 d>c d2 (3def | a>db>d a>d f2 | e2 (3fed B>A (3dcB | A>FE>F D2 :|


Tune 310	Setting 22996

